!!!OTL: Die Brombeeren (29a),
!!!id: T0152
**kern
*clefG2
*k[f#]
*G:
{4d
=1
4g
4g
4f#
4e
=2
4e
4d
4d}
=3
{4d
=4
4e
4g
4f#
4a
=5
2g}
4r
=6
{8g
8g
=7
4b
8g
8g
4b
4dd
=8
4dd
4cc
4a}
4r
=9
{4d
4g
4a
8ee
8ee
=10
4dd
8dd
8cc
4b}
=11
{4dd
=12
4dd
4cc
4e
4f#
=13
2g}
4r
=14
{8g
8g
=15
4b
8g
8g
4b
4dd
=16
4dd
4cc
4a}
4r
=17
{4d
4g
4a
8ee
8ee
=18
4dd
8dd
8cc
4b}
=19
{4dd
=20
4dd
4cc
4e
4f#
=21
2g}
4r
==
*-
!!!minrhy: 8
!!!meters: 4/4 ]  ZZ[8
!!!cut1: Die Brombeeren (29a),
!!!cut2: Melodie I, S. 110
!!!reg: Luxemburg
!!!trd: Singendes Volk, Esch-Alzette 1937 posth.
!!!rhy1: X_  X_X_X_X_  X_X_X_   (x2)
!!!rhy2: X_  X_X_X_X_  X__0
!!!key: T0152  08  G 4/4 ]  ZZ[8
!!!mod: HEPTATONIK IONISCH]  AMBITUS[9
!!!kad: -51231231
!!!akz: 1-7-6-5_-6-71_3352_-5253_5-61_3352_-5253_5-61_
!!!fot: 'a__b__c__d__e__c__d__e__
!!!for: 'a__aw_b__c__aw_b__c__aw_
!!!fok: '^__/__^a_^a_Vd_^a_^a_Vd_
!! PHRAS[VORWIEGEND AUFTAKTIG]
!!!fkt: Liebeslieder
!!!bem: Luxemburg, hhh Lorang Aschenberger, 1928
!! THILL, Mathias:
!! PR[37] 2K[2] 2G[7] 3K[9] 3G[2] 4A[5] 4Ü[0] 5A[2] 6K[0] 6G[0]
!! 7K[0] 7G[0] 8A[0] MEHR[0] SI[28] ABS[43] SR[9] SP[19]
!! ST[10] 2k[9] 2g[21] 3k[0] 3g[0] 4d[0] 4ü[2] 5d[2] 6k[0] 6g[0]
!! 7k[0] 7g[0] 8d[0] mehr[0] si[35] dm[-7] sr[30] sp[5]
!! 1F[38] 2F[57] 3F[4] 4F[0] LF[0] 2P[0] 3P[0] 4P[0] TRI[0] DF[3] AB[47]
!! TF[0] U3K[0] U3[0] U4[0] U4Ü[0] U5[9] U6K[0] U6[7] U7K[0] U7[14]
!! N1[18] N2K[0] N2[9] N3K[0] N3[11] N4[9] N4Ü[0] N5[14] N6K[0] N6[9]
!!!n7k: 0] N7[0] O1[0] O2K[0] O2[0] O3K[0] O3[0] HÖ[0
